!!!OTL: "Grenze des Wissens" FISCH IM SEE FINK IM STRAUCH
!!!ARE: Europa, Mitteleuropa, Steiermark
!!!SCT: Z1212
!!!YEM: Copyright 1995, estate of Helmut Schaffrath.
**kern
*ICvox
*Ivox
*M3/4
*k[b-]
*F:
{4f
8a
8c
8f
8a
=1
4cc
8b-
8c
4e}
=2
{4c
8e
8g
8b-
8dd
=3
4dd
8cc
8a
4f}
=4
{4f
8a
8c
8f
8a
=5
4cc
8b-
8c
4e}
=6
{4e
8ee
8cc
8cc
8e
=7
2f
4r}
==
!!!AGN: Liebes - Lied
!!!ONB: ESAC (Essen Associative Code) Database: ZUCCAL
!!!AMT: simple triple
!!!AIN: vox
!!!EED: Helmut Schaffrath
!!!EEV: 1.0
*-
